X:276
T: ES KAMEN ZWEI GEGANGEN
N: E0869A
O: Europa, Mitteleuropa, Deutschland, Hessen, Kreis Limburg, Heringen
R: Hochzeits -, Ehestands - Lied
M: 4/4
L: 1/8
K: G
D2 | G2G2BAG2 | A4cB
A2 | B2d2dcB2 | A4z2
D2 | A4cBA2 | d3cBA
G2 | A4d2dc | B4z2
D2 | A4cBA2 | d3cBA
G2 | A4d2dc | B4z2

